X: 1580
T: Polonäs ur Andreas Dahlgrens notbok nr 65
B: http://www.smus.se/earkiv/fmk/browselarge.php?lang=sw&katalogid=Ma+7&bildnr=00026
B: Andreas Dahlgrens notbok
O: Fågelvik, Tryserum, Småland
S: efter Andreas Dahlgren
R: Slängpolska
Z: Nils L
M: 3/4
L: 1/16
K: Dm
d2e2 f4 e2d2 | ^c2d2 e2d2 c2A2 | d2e2 f4 e2d2 | ^c2d2 e8 ::
f2g2 a2g2 a2e2 | e2fe d2ed ^c4 | d2e2 e2f2 e2d2 | ^c2=BA B2A^G A4 |
A2f2 e2d2 ^c2=B2 | A2^G2 A4 g4 | ((3g2f2e2) ((3f2e2d2) ((3e2d2^c2) | d4 D8 :|
(:musicend:)
(:music:)
